X:1
T:Io son amante
T:Benedetto Ferrari
T:Source : Musiche Varie a voce sola---Libro primo---Venetia---B.Magni---1633. Editor : André Vierendeels (02/01/17). 
T:Notes : Original clefs : C4, F4 Editorial accidentals above the staff Figures in BC are notated in original print Original note values have been halved
T:Io son amante
T:©
T:©
T:©
C:Benedetto Ferrari
Z:©
%%score 1 2
L:1/8
Q:1/4=101
M:6/4
K:F
V:1 treble-8 nm="Tenor" snm="T"
V:2 bass nm="MusicXML Part"
V:1
 F2 F2 F2 G2 G2 G2 | A4 =B2 c4 c2 | c2 c2 c2 d2 e2 f2 | f4 e2 f2 d4 | z2 z2 d2 d4 ^c2 | %5
w: Io son a- man- tz d'un|crin au- ra- to|ch'al- l'au- ra'er- ran- te m'ha'l|cor le- ga- to,|m'ha'l cot le-|
w: Spes- so'in quell' on- da A-|mo si bel- la|del cor m'af- fon- da la|ma- vi- cel- la|ma bra- man|
w: Vor- rei tal- lo- ra per|lie- to far- mi|es- ser un o- ra, in|fior can- giar- mi,|frà l'au- re|
w: Ma'in dar- no'as- pi- ro'à si|bel te- so- ro,|in van m'ag- gi- ro'à si|lu- ci d'o- ro,|per piu chia-|
 d2 A4 c2 c2 c2 | B2 B2 A2 A2 G3 F |[M:3/4] F4 F2 ::[M:6/4] z12 | z2 z2 A2 A4 A2 | TA4 G2 A4 A2 | %11
w: ga- to ch'al- l'au- ra'er-|ran- te, m'ha'l cor _ le-|ga- to,||piu ca- r'im-|pac- ci _ tro-|
w: tut- ti ta li di-|sa- gi, ma bra- * man|tut- ti||ma bra- man|tut- ti _ ta|
w: ha- vrei su- bli- me'ho-|no- re, frà l'au- * re|ha- vrei,||frà l'au- re'ha-|vre- * i su-|
w: tez- za lo chie- de'il|So- le, per piu chia- *|tez- za||per piu chia-|tez- za _ lo|
 D4 D2 D4 ^C2 | D6 d2 e2 f2 | c2 d2 e2 A2 =B2 c2 | c4 =B2 c6 | z6 A2 B2 c2 | F2 G2 A2 D4 D2 | %17
w: var non li- ce|_ son frà què|lac- ci pri- gion fe- *|li- ce, _|son frà què|lac- ci pri- gion, pri-|
w: li di- sa- gi,|_ son frà què|flut- ti ca- r'i nau- *|gra- gi, _|son frà què|flut- ti ca- r'i nau-|
w: bli- me'ho- no- re,|_ frà fior sa-|re- i, del ciel- * un|fio- * re.|frà fior sa-|re- i, del cliel un|
w: chie- de'il So- le,|_ per piu va-|ghez- za il ciel _ lo|vuo- * le.|per piu va-|ghez- za il ciel lo|
 E6 F2 F4- | F4 E2 !fermata!F6 :| %19
w: gion fe- li-|* * ce.|
w: * * fra-|* * gi.|
w: _ _ fio-|* * re|
w: _ _ vuo-|* * le.|
V:2
"^BC" F,6 E,6 | D,6 C,6 | A,,6 B,,6 | C,6 F,,6 | G,,6 A,,6 | D,6 A,,6 |"^4 3" B,,6 C,6 | %7
[M:3/4] F,,6 ::[M:6/4]"^-natural" z2 z2 C,2 D,4 E,2 | F,4 F,2 G,4 A,2 | B,6 A,4 F,2 | %11
 G,4 B,2 A,2 A,,4 | D,2 D,,4 D,6 | A,2 =B,2 C2 F,6 |"^-natural" G,6 C,2 D,2 E,2 | %15
 A,,2 B,,2 C,2 F,,6 | D,2 E,2 F,2 B,,6 | C,6 A,,4 B,,2 | C,6 !fermata!F,,6 :| %19

